X: 10442
T: SMITH'S HORNPIPE
C:
%R: hornpipe, reel
B: Elias Howe "The Musician's Companion" Part 1 1842 p.44 #2
S: http://imslp.org/wiki/The_Musician's_Companion_(Howe,_Elias)
Z: 2015 John Chambers <jc:trillian.mit.edu>
M: 2/4
L: 1/16
K: Bb
% - - - - - - - - - - - - - - - - - - - - - - - - -
   F2 |\
B2gf edcB | ABcd AFGA | (BA)(cB) (dc)(ed) | (fg)(ec) BAGF |\
B2(gf) (edcB) | ABcB AGFE | DBEB FBGB | AfcA B2 :|
|: F2 |\
D2.F.F BFdB | E2.G.G cAec | (dB)(gf) edcB | Af=ef ecAF |\
D2.F.F BFdB | E2.G.G (cA)(ec) | (df)(Bd) cgec | AFGA B2 :|
% - - - - - - - - - - - - - - - - - - - - - - - - -


